X: 1
T: Atholl Highlanders, The
C: Trad.
M: 6/8
R: March
L: 1/8
S: "The Fiddle Music of the Scottish Highlands - Volumes 1 & 2" book
K: Amix
|:e3 e>cA|e>cA B>cd|e3 e>cA|B>cd c>BA|
e3 e>cA|e>cA B>cd|e<ae f>ed|c>dB A3 :|
|:A>ce A>ce|A>df A>df|A>ce A>ce|B>cd c>BA|
A>ce A>ce|A>df A>df|e<ae f>ed|c>dB A3:|
|:a>ee e>dc|a>ee e>dc|a>ee e>dc|B>cd c>BA|
a>ee e>dc|a>ee e>dc|a>ee f>ed|c>dB A2:|
|:c>Ac c>Ac|d>Bd d>Bd|c>Ac c>Ac|B>=GB B>=GB|
c>Ac c>Ac|d>Bd d>Bd|e<ae f>ed|c>dB A3:|
